icons/1_Primary/mail.de.svg

<svg width="1024" height="1024" fill="none" xmlns="http://www.w3.org/2000/svg"><g clip-path="url(#a)"><path d="M512 1024c282.77 0 512-229.23 512-512S794.77 0 512 0 0 229.23 0 512s229.23 512 512 512Z" fill="#9ABEFF"/><path d="M461.3 642.8c3.5 0 7-1 9.8-2.9l.5-.3.4-.4c33.2-28.4 66.4-56.9 99.6-85.3 49.9-42.8 101.2-86.8 152.2-130.4-19 41.4-38.3 83.5-57 124.2-14.1 30.8-28.3 61.6-42.4 92.4-1 1.9-1.8 3.9-2.6 5.7-1.6 3.7-2.9 6.9-5 8.8l-.1.1-.1.1c-4.4 4.6-8.1 6.9-11.2 7H258.6c-1.2-.1-2.1-.2-2.8-.3.1-.3.2-.5.3-.8.2-.5.4-.9.6-1.3 12.8-28.7 25.6-57.3 38.4-86 17.7-39.6 36-80.6 54-121 2.1 3.9 4.2 7.9 6.3 11.7 3.3 6.2 6.7 12.5 10.1 18.7 16.9 31.4 34.1 63.3 50.7 94.2 10.2 18.9 20.3 37.8 30.5 56.7 2.4 5.5 8.1 9.1 14.6 9.1Zm360.6-315.9c-19.5 16.8-39.2 33.4-58.6 50.3-4.1 10.1-8.9 19.9-13.4 29.8-38.5 83.9-77 167.7-115.5 251.6-6.2 11.3-18.3 21-31.9 19.7H262.6c-5.2.1-10.7.3-15.6-2-4.4-1.6-7.9-5.3-9.1-9.9v-6.1c1.3-4.9 3.8-9.4 5.8-14 31.3-70.1 62.6-140.1 93.9-210.2 3.2-7.3 9.5-12.9 16.6-16.4 6-3 13-3.1 19.5-4.2 112.9-16.4 225.8-32.8 338.8-49.2 9.6-1.6 19.3-2.4 28.8-4.4 25.4-16.1 50.4-32.9 75.8-49.1 3.1-2 7.9-1.3 9.5 2.3 1.7 4.4-.9 9.3-4.7 11.8Zm-72.7 62.6c-94.4 80.9-188.8 161.8-283.1 242.7-3.5 2.3-9.5 1.8-11.1-2.6-27.1-50.4-54.3-100.8-81.4-151.3-8.3-15-16-30.4-24.6-45.2-3.7 4.2-5.5 9.6-7.9 14.7-30.9 69.2-61.9 138.4-92.8 207.6-1.6 3.6-4.3 8.2-1.1 11.7 2.9 2.7 7.1 3.4 11 3.6h347.1c7.1-.1 13.1-4.9 17.8-9.8 4.8-4.7 6.5-11.4 9.5-17.2L734 422.9c5-11 10.5-22 15.2-33.4Zm66-66.7c-12 7.5-23.7 15.4-35.6 23.1-15.1 9.8-30.4 19.2-44.6 30.4l-265.4 171-105-106.1-5.8-7c34.2 63.9 69 127.6 103.2 191.5 11.8-9.6 23.1-19.7 34.7-29.5 92.2-79.1 184.4-158.1 276.7-237.2 13.9-12.2 28.1-23.9 41.8-36.2Z" fill="#fff"/></g><defs><clipPath id="a"><path fill="#fff" d="M0 0h1024v1024H0z"/></clipPath></defs></svg>

<svg width="1024" height="1024" viewBox="0 0 1024 1024" fill="none" xmlns="http://www.w3.org/2000/svg">
<g clip-path="url(#clip0_2_2727)">
<path d="M512 1024C794.77 1024 1024 794.77 1024 512C1024 229.23 794.77 0 512 0C229.23 0 0 229.23 0 512C0 794.77 229.23 1024 512 1024Z" fill="#9ABEFF"/>
<path d="M461.3 642.8C464.8 642.8 468.3 641.8 471.1 639.9L471.6 639.6L472 639.2C505.2 610.8 538.4 582.3 571.6 553.9C621.5 511.1 672.8 467.1 723.8 423.5C704.8 464.9 685.5 507 666.8 547.7C652.7 578.5 638.5 609.3 624.4 640.1C623.4 642 622.6 644 621.8 645.8C620.2 649.5 618.9 652.7 616.8 654.6L616.7 654.7L616.6 654.8C612.2 659.4 608.5 661.7 605.4 661.8H258.6C257.4 661.7 256.5 661.6 255.8 661.5C255.9 661.2 256 661 256.1 660.7C256.3 660.2 256.5 659.8 256.7 659.4C269.5 630.7 282.3 602.1 295.1 573.4C312.8 533.8 331.1 492.8 349.1 452.4C351.2 456.3 353.3 460.3 355.4 464.1C358.7 470.3 362.1 476.6 365.5 482.8C382.4 514.2 399.6 546.1 416.2 577C426.4 595.9 436.5 614.8 446.7 633.7C449.1 639.2 454.8 642.8 461.3 642.8ZM821.9 326.9C802.4 343.7 782.7 360.3 763.3 377.2C759.2 387.3 754.4 397.1 749.9 407C711.4 490.9 672.9 574.7 634.4 658.6C628.2 669.9 616.1 679.6 602.5 678.3H262.6C257.4 678.4 251.9 678.6 247 676.3C242.6 674.7 239.1 671 237.9 666.4V660.3C239.2 655.4 241.7 650.9 243.7 646.3C275 576.2 306.3 506.2 337.6 436.1C340.8 428.8 347.1 423.2 354.2 419.7C360.2 416.7 367.2 416.6 373.7 415.5C486.6 399.1 599.5 382.7 712.5 366.3C722.1 364.7 731.8 363.9 741.3 361.9C766.7 345.8 791.7 329 817.1 312.8C820.2 310.8 825 311.5 826.6 315.1C828.3 319.5 825.7 324.4 821.9 326.9ZM749.2 389.5C654.8 470.4 560.4 551.3 466.1 632.2C462.6 634.5 456.6 634 455 629.6C427.9 579.2 400.7 528.8 373.6 478.3C365.3 463.3 357.6 447.9 349 433.1C345.3 437.3 343.5 442.7 341.1 447.8C310.2 517 279.2 586.2 248.3 655.4C246.7 659 244 663.6 247.2 667.1C250.1 669.8 254.3 670.5 258.2 670.7H605.3C612.4 670.6 618.4 665.8 623.1 660.9C627.9 656.2 629.6 649.5 632.6 643.7L734 422.9C739 411.9 744.5 400.9 749.2 389.5ZM815.2 322.8C803.2 330.3 791.5 338.2 779.6 345.9C764.5 355.7 749.2 365.1 735 376.3L469.6 547.3L364.6 441.2L358.8 434.2C393 498.1 427.8 561.8 462 625.7C473.8 616.1 485.1 606 496.7 596.2C588.9 517.1 681.1 438.1 773.4 359C787.3 346.8 801.5 335.1 815.2 322.8Z" fill="white"/>
</g>
<defs>
<clipPath id="clip0_2_2727">
<rect width="1024" height="1024" fill="white"/>
</clipPath>
</defs>
</svg>
